austria/municipalities/70728.svg

<?xml version="1.0" encoding="UTF-8"?>
<!DOCTYPE svg PUBLIC "-//W3C//DTD SVG 1.1//EN" "http://www.w3.org/Graphics/SVG/1.1/DTD/svg11.dtd">
<svg xmlns="http://www.w3.org/2000/svg" version="1.1" width="166px" height="192px" style="shape-rendering:geometricPrecision; text-rendering:geometricPrecision; image-rendering:optimizeQuality; fill-rule:evenodd; clip-rule:evenodd" xmlns:xlink="http://www.w3.org/1999/xlink">
<g><path style="opacity:1" fill="#110906" d="M -0.5,-0.5 C 54.8333,-0.5 110.167,-0.5 165.5,-0.5C 165.5,39.5 165.5,79.5 165.5,119.5C 156.943,160.057 132.277,184.057 91.5,191.5C 84.8333,191.5 78.1667,191.5 71.5,191.5C 30.9271,182.927 6.9271,158.261 -0.5,117.5C -0.5,78.1667 -0.5,38.8333 -0.5,-0.5 Z"/></g>
<g><path style="opacity:1" fill="#d63023" d="M 3.5,3.5 C 56.1667,3.5 108.833,3.5 161.5,3.5C 161.667,41.8348 161.5,80.1681 161,118.5C 155.521,150.972 137.355,172.805 106.5,184C 63.1191,194.055 30.9524,179.555 10,140.5C 6.74742,132.823 4.74742,124.823 4,116.5C 3.50001,78.8348 3.33335,41.1681 3.5,3.5 Z"/></g>
<g><path style="opacity:1" fill="#040101" d="M 78.5,10.5 C 82.2733,10.2633 85.9399,10.7633 89.5,12C 92.3316,14.1583 94.8316,16.6583 97,19.5C 108.243,23.0862 117.577,29.4195 125,38.5C 136.619,55.1343 141.785,73.6343 140.5,94C 141.801,113.173 137.634,131.007 128,147.5C 119.961,158.516 109.128,165.016 95.5,167C 91.3094,173.755 85.3094,176.089 77.5,174C 74.0026,172.589 71.3359,170.256 69.5,167C 56.5599,164.787 46.0599,158.621 38,148.5C 27.9815,131.588 23.4815,113.255 24.5,93.5C 23.0937,67.5317 31.7604,45.6984 50.5,28C 55.7205,23.9734 61.5538,21.1401 68,19.5C 71.083,15.9097 74.583,12.9097 78.5,10.5 Z"/></g>
<g><path style="opacity:1" fill="#d53023" d="M 80.5,16.5 C 83.374,16.6234 85.874,17.6234 88,19.5C 88.6667,25.8333 88.6667,32.1667 88,38.5C 84.0636,41.314 80.3969,40.9807 77,37.5C 76.3333,31.5 76.3333,25.5 77,19.5C 78.1451,18.3636 79.3117,17.3636 80.5,16.5 Z"/></g>
<g><path style="opacity:1" fill="#da9c1e" d="M 81.5,11.5 C 86.4894,11.8282 90.4894,13.9949 93.5,18C 89.9422,17.2546 86.2756,16.4212 82.5,15.5C 79.3007,15.5187 76.4674,16.5187 74,18.5C 73.5,18.1667 73,17.8333 72.5,17.5C 74.7493,14.2194 77.7493,12.2194 81.5,11.5 Z"/></g>
<g><path style="opacity:1" fill="#d4981f" d="M 73.5,39.5 C 79.0041,42.0426 84.5041,42.0426 90,39.5C 91.726,40.6479 91.5593,41.8145 89.5,43C 84.8333,46.3333 80.1667,46.3333 75.5,43C 74.1772,42.1841 73.5106,41.0174 73.5,39.5 Z"/></g>
<g><path style="opacity:1" fill="#d73023" d="M 70.5,41.5 C 78.3003,48.1276 86.1336,48.1276 94,41.5C 105.601,50.6877 112.601,62.6877 115,77.5C 117.359,91.9791 116.693,106.312 113,120.5C 109.994,130.827 103.994,138.827 95,144.5C 91.5563,141.028 87.3896,139.028 82.5,138.5C 77.8174,138.337 74.1507,140.17 71.5,144C 70.5,144.667 69.5,144.667 68.5,144C 59.0031,136.856 53.1698,127.356 51,115.5C 45.5328,91.8721 49.1995,69.8721 62,49.5C 64.7291,46.6007 67.5624,43.934 70.5,41.5 Z"/></g>
<g><path style="opacity:1" fill="#fdfdfd" d="M -0.5,117.5 C 6.9271,158.261 30.9271,182.927 71.5,191.5C 47.5,191.5 23.5,191.5 -0.5,191.5C -0.5,166.833 -0.5,142.167 -0.5,117.5 Z"/></g>
<g><path style="opacity:1" fill="#fdfdfd" d="M 165.5,119.5 C 165.5,143.5 165.5,167.5 165.5,191.5C 140.833,191.5 116.167,191.5 91.5,191.5C 132.277,184.057 156.943,160.057 165.5,119.5 Z"/></g>
<g><path style="opacity:1" fill="#db9c1e" d="M 78.5,140.5 C 84.263,139.448 88.9297,141.115 92.5,145.5C 92,145.833 91.5,146.167 91,146.5C 85.3333,142.5 79.6667,142.5 74,146.5C 72.7425,146.15 72.4092,145.483 73,144.5C 74.8121,143.023 76.6455,141.69 78.5,140.5 Z"/></g>
<g><path style="opacity:1" fill="#d63023" d="M 78.5,145.5 C 82.0071,144.994 85.1737,145.66 88,147.5C 88.6667,153.833 88.6667,160.167 88,166.5C 83.982,169.439 80.3153,169.105 77,165.5C 76.3333,159.5 76.3333,153.5 77,147.5C 77.7172,146.956 78.2172,146.289 78.5,145.5 Z"/></g>
<g><path style="opacity:1" fill="#db9c1e" d="M 71.5,167.5 C 72.6009,166.402 73.9343,166.235 75.5,167C 80.2071,171.65 84.8738,171.65 89.5,167C 90.8333,166.333 92.1667,166.333 93.5,167C 86.3654,175.466 79.032,175.633 71.5,167.5 Z"/></g>
</svg>

<svg xmlns="http://www.w3.org/2000/svg" width="166" height="192" style="shape-rendering:geometricPrecision;text-rendering:geometricPrecision;image-rendering:optimizeQuality;fill-rule:evenodd;clip-rule:evenodd"><path style="opacity:1" fill="#110906" d="M-.5-.5h166v120c-8.557 40.557-33.223 64.557-74 72h-20c-40.573-8.573-64.573-33.239-72-74V-.5z"/><path style="opacity:1" fill="#d63023" d="M3.5 3.5h158c.167 38.335 0 76.668-.5 115-5.479 32.472-23.645 54.305-54.5 65.5-43.38 10.055-75.548-4.445-96.5-43.5a79.34 79.34 0 0 1-6-24c-.5-37.665-.667-75.332-.5-113z"/><path style="opacity:1" fill="#040101" d="M78.5 10.5c3.773-.237 7.44.263 11 1.5a39.561 39.561 0 0 1 7.5 7.5c11.243 3.586 20.577 9.92 28 19 11.619 16.634 16.785 35.134 15.5 55.5 1.301 19.173-2.866 37.007-12.5 53.5-8.039 11.016-18.872 17.516-32.5 19.5-4.19 6.755-10.19 9.089-18 7-3.497-1.411-6.164-3.744-8-7-12.94-2.213-23.44-8.379-31.5-18.5-10.018-16.912-14.518-35.245-13.5-55-1.406-25.968 7.26-47.802 26-65.5 5.22-4.027 11.054-6.86 17.5-8.5 3.083-3.59 6.583-6.59 10.5-9z"/><path style="opacity:1" fill="#d53023" d="M80.5 16.5c2.874.123 5.374 1.123 7.5 3a90.496 90.496 0 0 1 0 19c-3.936 2.814-7.603 2.48-11-1-.667-6-.667-12 0-18a30.139 30.139 0 0 1 3.5-3z"/><path style="opacity:1" fill="#da9c1e" d="M81.5 11.5c4.99.328 8.99 2.495 12 6.5a344.332 344.332 0 0 1-11-2.5c-3.2.019-6.033 1.019-8.5 3l-1.5-1c2.25-3.28 5.25-5.28 9-6z"/><path style="opacity:1" fill="#d4981f" d="M73.5 39.5c5.504 2.543 11.004 2.543 16.5 0 1.726 1.148 1.56 2.315-.5 3.5-4.667 3.333-9.333 3.333-14 0-1.323-.816-1.99-1.983-2-3.5z"/><path style="opacity:1" fill="#d73023" d="M70.5 41.5c7.8 6.628 15.634 6.628 23.5 0 11.601 9.188 18.601 21.188 21 36 2.359 14.48 1.693 28.812-2 43-3.006 10.327-9.006 18.327-18 24-3.444-3.472-7.61-5.472-12.5-6-4.683-.163-8.35 1.67-11 5.5-1 .667-2 .667-3 0-9.497-7.144-15.33-16.644-17.5-28.5-5.467-23.628-1.8-45.628 11-66a94.358 94.358 0 0 1 8.5-8z"/><path style="opacity:1" fill="#fdfdfd" d="M-.5 117.5c7.427 40.761 31.427 65.427 72 74h-72v-74zM165.5 119.5v72h-74c40.777-7.443 65.443-31.443 74-72z"/><path style="opacity:1" fill="#db9c1e" d="M78.5 140.5c5.763-1.052 10.43.615 14 5l-1.5 1c-5.667-4-11.333-4-17 0-1.257-.35-1.59-1.017-1-2a60.011 60.011 0 0 1 5.5-4z"/><path style="opacity:1" fill="#d63023" d="M78.5 145.5c3.507-.506 6.674.16 9.5 2a90.496 90.496 0 0 1 0 19c-4.018 2.939-7.685 2.605-11-1-.667-6-.667-12 0-18 .717-.544 1.217-1.211 1.5-2z"/><path style="opacity:1" fill="#db9c1e" d="M71.5 167.5c1.1-1.098 2.434-1.265 4-.5 4.707 4.65 9.374 4.65 14 0 1.333-.667 2.667-.667 4 0-7.135 8.466-14.468 8.633-22 .5z"/></svg>
